icon/lg/appsignal.svg

<?xml version="1.0" encoding="UTF-8"?>
<svg viewBox="0 0 512 91" version="1.1" xmlns="http://www.w3.org/2000/svg" xmlns:xlink="http://www.w3.org/1999/xlink" preserveAspectRatio="xMidYMid" height="1em" width="1em">
  <g fill="#21375A">
    <path d="M241.697622,29.5711911 C251.6256,29.5711911 254.362885,36.1094737 254.362885,36.1094737 L254.533079,36.1094737 C254.47224,35.7487094 254.443761,35.3832301 254.447982,35.0173961 L254.447982,33.4289197 C254.447982,31.8262604 255.625157,30.5923546 257.880226,30.5923546 L260.716791,30.5923546 C261.66143,30.4827117 262.604506,30.8098499 263.27833,31.4809129 C263.952155,32.1519758 264.283163,33.0936995 264.1774,34.0387812 L264.1774,70.7297507 C264.1774,85.4089751 252.604215,90.940277 242.03801,90.940277 C237.767859,90.9703603 233.529824,90.200683 229.542941,88.6710249 C228.601011,88.4450005 227.825665,87.7790213 227.4601,86.8819815 C227.094535,85.9849418 227.183531,84.9667227 227.699173,84.1467036 L228.3374,82.2603878 C229.301833,80.1187812 230.549921,79.5372853 232.819173,80.2889751 C235.571585,81.3611248 238.502744,81.9001886 241.456514,81.8774515 C247.994797,81.8774515 253.526099,79.1118006 253.526099,71.4814404 L253.526099,68.3044875 C253.538566,67.5736619 253.595402,66.8442678 253.696292,66.1203324 L253.526099,66.1203324 C251.17175,70.1482548 247.484215,72.4884211 241.782719,72.4884211 C229.301833,72.4884211 222.423162,62.5604432 222.423162,50.7745152 C222.423162,38.9885873 228.961445,29.5711911 241.697622,29.5711911 Z M80.8360155,29.5711911 C92.409201,29.5711911 99.8693673,38.7049307 99.8693673,51.9516898 C99.8693673,65.3646424 91.700864,74.1059299 80.6851329,74.3278608 L80.2545196,74.3321884 C75.2700336,74.5248491 70.5652397,72.0289803 67.9296443,67.7939058 L67.7594504,67.7939058 C67.9509718,69.0141054 68.0552436,70.2464084 68.0714725,71.4814404 L68.0714725,86.5152355 C68.2161258,87.4864788 67.8929853,88.4689241 67.2000358,89.1646677 C66.5070864,89.8604113 65.5259493,90.1875027 64.5541318,90.046759 L60.88078,90.046759 C59.9129687,90.169229 58.9430515,89.8361757 58.2546374,89.1449857 C57.5662232,88.4537957 57.2370757,87.4825461 57.3634393,86.5152355 L57.3634393,34.0387812 C57.2533794,33.0763741 57.5884147,32.116336 58.2733748,31.4313759 C58.9583348,30.7464159 59.918373,30.4113806 60.88078,30.5214404 L63.561334,30.5214404 C65.8305861,30.5214404 67.0077606,31.7695291 67.0077606,33.4572853 L67.0077606,35.4570637 C67.0075745,36.015998 66.9791727,36.5745667 66.9226637,37.1306371 L67.0786747,37.1306371 C69.9333948,32.2808904 75.211682,29.3805533 80.8360155,29.5711911 Z M131.45452,29.585374 C143.027705,29.585374 150.487871,38.7191136 150.487871,51.9658726 C150.487871,65.3788252 142.319368,74.1201127 131.303637,74.3420436 L130.873024,74.3463712 C125.888538,74.5390319 121.183744,72.0431631 118.548148,67.8080886 L118.377955,67.8080886 C118.555542,69.0291109 118.640881,70.2617779 118.633245,71.4956233 L118.633245,86.5152355 C118.772732,87.4879771 118.445814,88.4695923 117.750947,89.1644602 C117.056079,89.8593281 116.074463,90.1862456 115.101722,90.046759 L111.42837,90.046759 C110.460559,90.169229 109.490642,89.8361757 108.802227,89.1449857 C108.113813,88.4537957 107.784666,87.4825461 107.911029,86.5152355 L107.911029,34.0387812 C107.800969,33.0763741 108.136005,32.116336 108.820965,31.4313759 C109.505925,30.7464159 110.465963,30.4113806 111.42837,30.5214404 L114.108924,30.5214404 C116.378176,30.5214404 117.555351,31.7695291 117.555351,33.4572853 L117.555351,35.4570637 C117.555165,36.015998 117.526763,36.5745667 117.470254,37.1306371 L117.711362,37.1306371 C120.565042,32.2886147 125.837399,29.3939875 131.45452,29.585374 Z M177.023938,12.7919407 C182.47469,12.7604265 187.813502,14.3393728 192.369755,17.3314127 C193.184947,17.7878216 193.768855,18.5679657 193.976959,19.4787569 C194.185062,20.3895481 193.997914,21.3458681 193.461833,22.1110249 L191.958453,24.8766759 C190.696182,27.3019391 188.937511,26.9615512 187.178841,26.0396676 C184.116784,24.0048103 180.543182,22.8742346 176.867927,22.7776177 C171.322442,22.7776177 167.805101,25.4581717 167.805101,29.4860942 C167.805101,40.633795 195.560891,37.7830471 195.560891,56.7313019 C195.560891,66.3756233 188.341833,74.3321884 175.860946,74.3321884 C169.289097,74.2694063 162.899716,72.1627446 157.579284,68.3044875 C156.765886,67.8023423 156.229011,66.9536314 156.123752,66.003533 C156.018493,65.0534347 156.356577,64.1077895 157.040337,63.4397784 L158.884104,60.7592244 C160.21729,58.9154571 161.720669,58.8303601 163.73463,60.0075346 C167.219868,62.6951016 171.462155,64.2183557 175.860946,64.361662 C181.392248,64.361662 184.739395,61.525097 184.739395,57.5680886 C184.739395,46.2218283 156.997788,48.6045429 156.997788,30.06759 C156.997788,19.586482 165.706043,12.7919407 177.023938,12.7919407 Z M341.445434,29.585374 C352.508038,29.585374 359.131417,35.7832687 359.131417,46.6047645 L359.131417,69.807867 C359.271068,70.7768567 358.945701,71.7549749 358.253443,72.4472333 C357.561184,73.1394917 356.583066,73.4648587 355.614076,73.3252078 L352.777511,73.3252078 C351.819441,73.4475422 350.859512,73.1130252 350.184967,72.4217562 C349.510422,71.7304871 349.19951,70.7626542 349.345268,69.807867 L349.345268,68.0775623 C349.332307,67.4585223 349.389401,66.8400024 349.515461,66.233795 L349.345268,66.233795 C346.636904,71.1247441 341.518462,74.192563 335.928315,74.2754571 C328.127761,74.2754571 321.745004,69.2547368 321.745004,61.5109141 C321.675387,49.1594664 336.752804,46.9664144 346.33279,46.9176313 L348.423384,46.9167867 L348.423384,45.9098061 C348.423384,40.2366759 344.820946,38.3645429 340.452636,38.3645429 C337.339119,38.4456735 334.292057,39.2828856 331.574187,40.8039889 C329.559091,41.6889972 328.001477,41.4106962 326.98918,39.6177401 L326.028702,37.7972299 C325.480134,37.0134851 325.321414,36.0214054 325.598082,35.1056336 C325.874751,34.1898617 326.556227,33.4516176 327.446985,33.1027147 C331.763618,30.824828 336.564759,29.6184623 341.445434,29.585374 Z M378.577712,14.7266648 C379.250523,15.4160885 379.568946,16.3766004 379.441223,17.3314127 L379.441223,59.1565651 C379.441223,63.282478 381.094922,64.0609835 382.643548,64.2595628 L382.78837,64.2765651 C383.541347,64.3114785 384.246602,64.6553555 384.737823,65.227104 C385.229043,65.7988525 385.462749,66.5478634 385.383827,67.2975069 L385.383827,70.134072 C385.527559,71.1124278 385.20753,72.1019235 384.5181,72.8108134 C383.82867,73.5197033 382.848463,73.867143 381.866486,73.7506925 L381.376398,73.7467954 C375.78114,73.6560207 368.875018,71.8976051 368.875018,60.0075346 L368.875018,17.3314127 C368.74235,16.3780954 369.057078,15.416905 369.7279,14.7266787 C370.398722,14.0364525 371.35055,13.6944517 372.307262,13.7998892 L375.994797,13.7998892 C376.95244,13.6954886 377.904901,14.0372411 378.577712,14.7266648 Z M299.602031,29.5112195 L300.045766,29.5144598 C309.519894,29.5144598 314.966099,34.4500831 314.966099,45.7679778 L314.966099,69.807867 C315.10575,70.7768567 314.780382,71.7549749 314.088124,72.4472333 C313.395866,73.1394917 312.417747,73.4648587 311.448758,73.3252078 L307.84632,73.3252078 C306.879977,73.4526586 305.909339,73.1232977 305.220114,72.4340728 C304.530889,71.7448479 304.201529,70.7742098 304.328979,69.807867 L304.328979,48.0088643 C304.328979,42.8179501 302.910697,39.2864266 297.620503,39.2864266 C290.07524,39.2864266 285.295628,45.5836011 285.295628,53.2990582 L285.295628,69.807867 C285.436265,70.7641704 285.121582,71.7312174 284.445095,72.4216237 C283.768608,73.1120299 282.80817,73.4463411 281.849201,73.3252078 L278.161666,73.3252078 C277.203597,73.4475422 276.243667,73.1130252 275.569122,72.4217562 C274.894577,71.7304871 274.583666,70.7626542 274.729423,69.807867 L274.729423,34.0387812 C274.601583,33.0877297 274.918468,32.1307508 275.588653,31.4439503 C276.258837,30.7571498 277.20777,30.4169263 278.161666,30.5214404 L281.437899,30.5214404 C282.393181,30.4111088 283.345695,30.7494717 284.017295,31.4377228 C284.688894,32.1259739 285.003833,33.0864877 284.870143,34.0387812 L284.870143,36.6342382 C284.859697,37.2804401 284.802819,37.9250556 284.699949,38.5631025 L284.870143,38.5631025 C287.716664,33.027039 293.401573,29.5480714 299.602031,29.5112195 Z M213.432893,31.43774 C214.106472,32.1251784 214.425117,33.0849926 214.296403,34.0387812 L214.296403,69.807867 C214.43704,70.7641704 214.122357,71.7312174 213.445871,72.4216237 C212.769384,73.1120299 211.808946,73.4463411 210.849977,73.3252078 L207.162442,73.3252078 C206.204372,73.4475422 205.244442,73.1130252 204.569898,72.4217562 C203.895353,71.7304871 203.584441,70.7626542 203.730198,69.807867 L203.730198,34.0387812 C203.602358,33.0877297 203.919244,32.1307508 204.589428,31.4439503 C205.259613,30.7571498 206.208545,30.4169263 207.162442,30.5214404 L210.849977,30.5214404 C211.806189,30.4121765 212.759315,30.7503016 213.432893,31.43774 Z M32.1321927,16.6506371 L50.7400598,69.3114681 C51.5768465,71.7367313 50.4847689,73.3252078 47.9034947,73.3252078 L44.0315833,73.3252078 C42.1991154,73.4760226 40.5282988,72.2739963 40.0887578,70.4886427 L35.9048243,58.1495845 L15.0277052,58.1495845 L10.9146858,70.4035457 C10.516249,72.2265765 8.8319287,73.47467 6.97186033,73.3252078 L3.12831462,73.3252078 C0.51867473,73.3252078 -0.573402832,71.7367313 0.291749523,69.3114681 L18.8854337,16.6506371 C19.3453987,14.8791795 21.0024737,13.6870392 22.8282592,13.814072 L28.1893673,13.814072 C30.0218352,13.6632572 31.6926518,14.8652835 32.1321927,16.6506371 Z M348.508481,54.9726316 L348.508481,53.3841551 L346.735628,53.3841551 C341.37452,53.3841551 332.24078,54.2209418 332.24078,60.5890305 C332.24078,63.4397784 334.424935,66.2054294 338.693966,66.2054294 C344.650752,66.2054294 348.508481,60.1635457 348.508481,54.9726316 Z M129.043439,38.7049307 C123.497955,38.7049307 118.221943,42.7328532 118.221943,52.2069806 C118.221943,58.8303601 121.966209,65.3686427 128.873245,65.3686427 C134.730752,65.3686427 139.595461,60.5890305 139.595461,52.1218837 C139.595461,43.9809418 135.241334,38.7049307 129.043439,38.7049307 Z M78.4816664,38.7049307 C72.9503645,38.7049307 67.6743534,42.7328532 67.6743534,52.2069806 C67.6743534,58.8303601 71.361888,65.3686427 78.3256553,65.3686427 C84.1831623,65.3686427 89.0478714,60.5890305 89.0478714,52.1218837 C89.0478714,43.9809418 84.693744,38.7049307 78.4816664,38.7049307 Z M243.385378,38.6481994 C236.761999,38.6481994 233.145378,43.3427147 233.145378,50.3915789 C233.145378,58.107036 237.003107,63.553241 243.881777,63.553241 C248.91668,63.5248753 253.781389,60.5890305 253.781389,51.0581717 C253.781389,41.2436565 248.91668,38.6481994 243.385378,38.6481994 Z M25.5939102,24.1108033 L25.4237163,24.1108033 L24.6241595,27.4668144 C24.1614448,29.354903 23.5728576,31.6631579 23.0693673,33.3438227 L17.7082592,49.2711357 L33.2242703,49.2711357 L27.9340764,33.3438227 L27.679475,32.4560419 C26.7260739,29.0446537 25.5939102,24.1108033 25.5939102,24.1108033 Z M213.463574,14.714157 C214.149155,15.4025023 214.482095,16.3667022 214.367317,17.3314127 L214.367317,19.8559557 C214.477649,20.8112372 214.139286,21.7637514 213.451035,22.4353512 C212.762784,23.106951 211.80227,23.4218892 210.849977,23.2881994 L207.162442,23.2881994 C206.218616,23.4164965 205.269056,23.0963892 204.595532,22.4228656 C203.922009,21.7493421 203.601901,20.7997818 203.730198,19.8559557 L203.730198,17.3314127 C203.59753,16.3780954 203.912258,15.416905 204.58308,14.7266787 C205.253902,14.0364525 206.20573,13.6944517 207.162442,13.7998892 L210.849977,13.7998892 C211.815141,13.6889944 212.777994,14.0258117 213.463574,14.714157 Z"/>
    <path d="M498.506043,17.7852632 C490.790586,17.7852632 485.273467,24.5788366 479.586154,32.1524654 C476.05463,16.0691413 472.140171,0 459.659284,0 C447.178398,0 443.249755,16.0691413 439.6615,32.1666482 C433.98837,24.5788366 428.471251,17.7852632 420.755794,17.7852632 C415.848536,17.7852632 407.5374,21.1182271 407.5374,33.6274792 L407.5374,56.32 C407.5374,68.588144 414.089866,71.594903 418.018509,72.6302493 L418.018509,72.6302493 C424.797899,74.3889197 441.122331,76.0341274 459.503273,76.0341274 C477.884215,76.0341274 494.208647,74.3889197 500.988038,72.6302493 L500.988038,72.6302493 C504.91668,71.594903 511.483328,68.588144 511.483328,56.32 L511.483328,33.6274792 C511.483328,21.1182271 503.172193,17.7852632 498.264935,17.7852632 M459.659284,7.09141274 C467.133633,7.09141274 469.984381,21.8415512 473.955572,39.5417175 C469.601445,44.9028255 464.977844,49.2285873 459.659284,49.2285873 C454.340725,49.2285873 449.731306,44.9028255 445.362996,39.5417175 C449.078896,22.9903601 451.943827,7.09141274 459.659284,7.09141274 M414.742276,56.3909141 L414.742276,33.6983934 C414.742276,25.7985596 418.997123,24.94759 420.869256,24.94759 C426.315461,24.94759 432.215517,34.0245983 437.732636,41.3145706 C433.78981,57.8517452 429.62006,67.9215512 419.777179,65.8508587 C417.210087,65.1559003 414.799007,63.5248753 414.799007,56.4618283 M434.116015,67.9640997 C438.470143,63.227036 441.207428,55.8377839 443.3774,48.0088643 C447.930087,52.7884765 453.191916,56.3909141 459.716015,56.3909141 C466.240115,56.3909141 471.487761,52.7884765 476.05463,48.0088643 C478.167871,55.8377839 480.947705,63.227036 485.301833,67.9640997 C477.685655,68.6590582 468.52355,69.0845429 459.772747,69.0845429 C451.021943,69.0845429 441.788924,68.6590582 434.172747,67.9640997 M504.689755,56.4618283 C504.689755,63.553241 502.278675,65.1559003 499.711583,65.8508587 C489.85452,67.9357341 485.698952,57.8517452 481.756126,41.3145706 C487.329977,34.0245983 493.102387,24.94759 498.619506,24.94759 C500.463273,24.94759 504.746486,25.7985596 504.746486,33.6983934 L504.689755,56.4618283 Z"/>
  </g>
</svg>

<svg width="512" height="91" xmlns="http://www.w3.org/2000/svg" preserveAspectRatio="xMidYMid"><g fill="#21375A"><path d="M241.698 29.571c9.928 0 12.665 6.538 12.665 6.538h.17c-.06-.36-.09-.726-.085-1.092V33.43c0-1.603 1.177-2.837 3.432-2.837h2.837a3.12 3.12 0 0 1 3.46 3.447v36.69c0 14.68-11.573 20.211-22.139 20.211-4.27.03-8.508-.74-12.495-2.269a3.007 3.007 0 0 1-1.844-4.524l.638-1.887c.965-2.141 2.213-2.723 4.482-1.971a23.302 23.302 0 0 0 8.638 1.588c6.538 0 12.07-2.765 12.07-10.396v-3.177c.012-.73.068-1.46.17-2.184h-.17c-2.355 4.028-6.043 6.368-11.744 6.368-12.481 0-19.36-9.928-19.36-21.713 0-11.786 6.538-21.204 19.275-21.204Zm-160.862 0c11.573 0 19.033 9.134 19.033 22.38 0 13.414-8.168 22.155-19.184 22.377l-.43.004a13.885 13.885 0 0 1-12.325-6.538h-.17c.191 1.22.295 2.452.311 3.687v15.034a3.106 3.106 0 0 1-3.517 3.532h-3.673a3.149 3.149 0 0 1-3.518-3.532V34.04a3.177 3.177 0 0 1 3.518-3.518h2.68c2.27 0 3.447 1.249 3.447 2.936v2c0 .559-.029 1.118-.085 1.674h.156a15.36 15.36 0 0 1 13.757-7.56Zm50.619.014c11.573 0 19.033 9.134 19.033 22.38 0 13.414-8.169 22.155-19.184 22.377l-.431.004a13.885 13.885 0 0 1-12.325-6.538h-.17c.178 1.221.263 2.454.255 3.688v15.02a3.12 3.12 0 0 1-3.531 3.53h-3.674a3.149 3.149 0 0 1-3.517-3.53V34.038a3.177 3.177 0 0 1 3.517-3.518h2.68c2.27 0 3.447 1.249 3.447 2.936v2c0 .559-.028 1.118-.085 1.674h.241a15.346 15.346 0 0 1 13.744-7.546Zm45.569-16.793a27.665 27.665 0 0 1 15.346 4.54 3.305 3.305 0 0 1 1.092 4.779l-1.504 2.766c-1.262 2.425-3.02 2.085-4.78 1.163a19.558 19.558 0 0 0-10.31-3.262c-5.546 0-9.063 2.68-9.063 6.708 0 11.148 27.756 8.297 27.756 27.245 0 9.645-7.22 17.601-19.7 17.601a31.656 31.656 0 0 1-18.282-6.028 3.106 3.106 0 0 1-.539-4.864l1.844-2.68c1.333-1.845 2.837-1.93 4.85-.752a20.976 20.976 0 0 0 12.127 4.354c5.531 0 8.878-2.837 8.878-6.794 0-11.346-27.741-8.963-27.741-27.5 0-10.482 8.708-17.276 20.026-17.276Zm164.421 16.793c11.063 0 17.686 6.198 17.686 17.02v23.203a3.106 3.106 0 0 1-3.517 3.517h-2.836a3.078 3.078 0 0 1-3.433-3.517v-1.73a8.212 8.212 0 0 1 .17-1.844h-.17a15.601 15.601 0 0 1-13.417 8.041c-7.8 0-14.183-5.02-14.183-12.764-.07-12.352 15.008-14.545 24.588-14.593l2.09-.001V45.91c0-5.673-3.602-7.545-7.97-7.545-3.114.08-6.16.918-8.879 2.439-2.015.885-3.573.607-4.585-1.186l-.96-1.82a3.12 3.12 0 0 1 1.418-4.695 30.436 30.436 0 0 1 13.998-3.518Zm37.133-14.858c.673.69.99 1.65.863 2.604v41.826c0 4.125 1.654 4.904 3.203 5.103l.144.017a2.737 2.737 0 0 1 2.596 3.02v2.837a3.177 3.177 0 0 1-3.518 3.617l-.49-.004c-5.595-.091-12.501-1.85-12.501-13.74V17.332a3.12 3.12 0 0 1 3.432-3.531h3.688a3.134 3.134 0 0 1 2.583.927ZM299.602 29.51l.444.003c9.474 0 14.92 4.936 14.92 16.254v24.04a3.106 3.106 0 0 1-3.517 3.517h-3.603a3.134 3.134 0 0 1-3.517-3.517v-21.8c0-5.19-1.418-8.722-6.708-8.722-7.546 0-12.325 6.298-12.325 14.013v16.509a3.092 3.092 0 0 1-3.447 3.517h-3.687a3.078 3.078 0 0 1-3.433-3.517v-35.77a3.12 3.12 0 0 1 3.433-3.517h3.276a3.106 3.106 0 0 1 3.432 3.518v2.595c-.01.646-.067 1.291-.17 1.93h.17a16.68 16.68 0 0 1 14.732-9.053Zm-86.17 1.927a3.12 3.12 0 0 1 .864 2.6v35.77a3.092 3.092 0 0 1-3.446 3.517h-3.688a3.078 3.078 0 0 1-3.432-3.517v-35.77a3.12 3.12 0 0 1 3.432-3.517h3.688a3.12 3.12 0 0 1 2.583.917ZM32.133 16.65 50.74 69.31c.837 2.426-.255 4.014-2.837 4.014h-3.871a3.744 3.744 0 0 1-3.943-2.836l-4.184-12.34H15.028l-4.113 12.255a3.73 3.73 0 0 1-3.943 2.921H3.128c-2.61 0-3.701-1.588-2.836-4.014l18.593-52.66a3.801 3.801 0 0 1 3.943-2.837h5.361a3.744 3.744 0 0 1 3.943 2.837Zm316.376 38.322v-1.589h-1.772c-5.361 0-14.495.837-14.495 7.205 0 2.85 2.184 5.616 6.453 5.616 5.957 0 9.814-6.041 9.814-11.232ZM129.043 38.705c-5.545 0-10.821 4.028-10.821 13.502 0 6.623 3.744 13.162 10.651 13.162 5.858 0 10.722-4.78 10.722-13.247 0-8.141-4.354-13.417-10.552-13.417Zm-50.561 0c-5.532 0-10.808 4.028-10.808 13.502 0 6.623 3.688 13.162 10.652 13.162 5.857 0 10.722-4.78 10.722-13.247 0-8.141-4.354-13.417-10.566-13.417Zm164.903-.057c-6.623 0-10.24 4.695-10.24 11.744 0 7.715 3.858 13.161 10.737 13.161 5.035-.028 9.9-2.964 9.9-12.495 0-9.814-4.865-12.41-10.397-12.41ZM25.594 24.111h-.17l-.8 3.356c-.463 1.888-1.051 4.196-1.555 5.877L17.71 49.27h15.515l-5.29-15.927-.255-.888c-.953-3.411-2.085-8.345-2.085-8.345Zm187.87-9.397a3.177 3.177 0 0 1 .903 2.617v2.525a3.106 3.106 0 0 1-3.517 3.432h-3.688a3.05 3.05 0 0 1-3.432-3.432v-2.525a3.12 3.12 0 0 1 3.432-3.531h3.688a3.177 3.177 0 0 1 2.614.914ZM498.506 17.785c-7.715 0-13.233 6.794-18.92 14.367C476.055 16.07 472.14 0 459.66 0c-12.48 0-16.41 16.07-19.998 32.167-5.673-7.588-11.19-14.382-18.905-14.382-4.907 0-13.219 3.333-13.219 15.842V56.32c0 12.268 6.553 15.275 10.482 16.31 6.779 1.759 23.103 3.404 41.484 3.404s34.706-1.645 41.485-3.404c3.929-1.035 10.495-4.042 10.495-16.31V33.627c0-12.509-8.31-15.842-13.218-15.842M459.659 7.091c7.475 0 10.325 14.75 14.297 32.45-4.355 5.362-8.978 9.688-14.297 9.688-5.318 0-9.928-4.326-14.296-9.687 3.716-16.552 6.58-32.45 14.296-32.45M414.742 56.39V33.698c0-7.9 4.255-8.75 6.127-8.75 5.446 0 11.347 9.077 16.864 16.367-3.943 16.537-8.113 26.607-17.956 24.536-2.567-.695-4.978-2.326-4.978-9.39m19.317 11.503c4.354-4.737 7.091-12.126 9.261-19.955 4.553 4.78 9.815 8.382 16.339 8.382 6.524 0 11.772-3.603 16.339-8.382 2.113 7.829 4.893 15.218 9.247 19.955-7.616.695-16.778 1.12-25.53 1.12-8.75 0-17.983-.425-25.6-1.12m70.518-11.502c0 7.091-2.411 8.694-4.978 9.389-9.857 2.085-14.013-8-17.956-24.536 5.574-7.29 11.346-16.367 16.864-16.367 1.843 0 6.126.85 6.126 8.75l-.056 22.764Z"/></g></svg>
